X: 1
T: Leo Ginley's
M: 4/4
L: 1/8
R: reel
K: Gmaj
|:B|dB (3BcB GBdB|c2dc Bgfe|dB (3BcB GBdB|(3ABA GA BGGB|
dB (3BcB GBdB|c2dc Bgfe|dB (3BcB GBdB|1(3ABA GA BG G:|2(3ABA GA BGG2||
|:gfgd BGBd|g2dg faaf|gfgd (3Bcd Bd|cAFA BGGB|
gfgd BGBd|g2fg faaf|gfgd BcdB|1(3ABA GA BGGz:|2(3ABA GA BGG||
